assets/symbols/mulberry/notepad.svg

<svg height="850.394" viewBox="0 0 850.394 850.394" width="850.394" xmlns="http://www.w3.org/2000/svg"><g fill="#ffeec8"><path d="m706.72 474.3 23.01 43.56-1.82.96-377.14 162.39-23.71-49.94 377.82-156zm-173.1-327.8 20 37.88-1.46.77-369.38 138.66-1.42.68-18.36-38.67 1.85-.88z"/><path d="m729.73 517.86 20.4 38.63-.46.2-378.92 166.58-19.98-42.06 377.14-162.39zm-176.11-333.48 153.1 289.92-1.84.97-377.82 156-145.7-306.78 1.42-.68 369.38-138.66z"/><path d="m113.57 186.52c1.83 1.15 2.34 3.05 3.92 3.92l.24.07 45.27 95.31 18.36 38.67 145.7 306.779 23.71 49.94 19.98 42.06 378.92-166.579.03.06c1.74-.08 3.09.72 4.71 1.04l.03.1-23.72 70.97-382.81 166.78-247.75-528.45 4.83-28.97 8.57-51.46.01-.24z"/><path d="m533.62 146.5-368.77 138.44-1.85.88-45.27-95.31 367.25-136.11z"/></g><g fill="none"><g stroke="#000"><path d="m729.73 517.86 20.4 38.63-.46.2-378.92 166.58-19.98-42.06-23.71-49.94-145.7-306.78-18.36-38.67-45.27-95.31 367.25-136.11 48.64 92.1 20 37.88 153.1 289.92z" stroke-width="20.486"/><path d="m741.85 582.38-379.39 166.78-253.02-532.76" stroke-width="6.829"/><path d="m735.78 600.79-379.39 166.79-251.4-529.36" stroke-width="6.829"/><path d="m113.56 186.76-8.57 51.46-4.83 28.97 247.75 528.45 382.81-166.78 23.72-70.97" stroke-width="20.486"/><path d="m164.85 284.94 368.77-138.44.61-.23m-351.45 177.54 369.38-138.66m-346.67 181.81 369.38-138.66m-346.91 181.17 369.38-138.66m-351.45 177.53 369.38-138.65m-344.62 182.45 369.38-138.66m-346.91 181.17 369.39-138.66m-351.46 186.2 369.39-147.31m-353.38 196.39 377.82-156m-354.11 205.94 377.14-162.39" stroke-width="13.658"/></g><path d="m0 0h850.394v850.394h-850.394z"/></g></svg>

<svg xmlns="http://www.w3.org/2000/svg" width="850.394" height="850.394" viewBox="0 0 850.394 850.394" overflow="visible"><g fill="#ffeec8"><path d="M706.72 474.3l23.01 43.56-1.82.96-377.14 162.39-23.71-49.94 377.82-156zM533.62 146.5l20 37.88-1.46.77-369.38 138.66-1.42.68L163 285.82l1.85-.88z"/><path d="M729.73 517.86l20.4 38.63-.46.2-378.92 166.58-19.98-42.06 377.14-162.39zM553.62 184.38l153.1 289.92-1.84.97-377.82 156-145.7-306.78 1.42-.68 369.38-138.66z"/><path d="M113.57 186.52c1.83 1.15 2.34 3.05 3.92 3.92l.24.07L163 285.82l18.36 38.67 145.7 306.779 23.71 49.94 19.98 42.06L749.67 556.69l.03.06c1.74-.08 3.09.72 4.71 1.04l.03.1-23.72 70.97-382.81 166.78-247.75-528.45 4.83-28.97 8.57-51.46.01-.24z"/><path d="M533.62 146.5L164.85 284.94l-1.85.88-45.27-95.31L484.98 54.4z"/></g><g fill="none" stroke="#000"><path stroke-width="20.486" d="M729.73 517.86l20.4 38.63-.46.2-378.92 166.58-19.98-42.06-23.71-49.94-145.7-306.78L163 285.82l-45.27-95.31L484.98 54.4l48.64 92.1 20 37.88 153.1 289.92z"/><path stroke-width="6.829" d="M741.85 582.38L362.46 749.16 109.44 216.4"/><path stroke-width="6.829" d="M735.78 600.79L356.39 767.58l-251.4-529.36"/><path stroke-width="20.486" d="M113.56 186.76l-8.57 51.46-4.83 28.97 247.75 528.45 382.81-166.78 23.72-70.97"/><path stroke-width="13.658" d="M164.85 284.94L533.62 146.5l.61-.23M182.78 323.81l369.38-138.66M205.49 366.96L574.87 228.3M227.96 409.47l369.38-138.66M245.89 448.34l369.38-138.65M270.65 492.14l369.38-138.66M293.12 534.65l369.39-138.66M311.05 582.19l369.39-147.31M327.06 631.27l377.82-156M350.77 681.21l377.14-162.39"/></g><path fill="none" d="M0 0h850.394v850.394H0z"/></svg>
